!! 00053] TT[KA
!! Kassette von Frau Li Wenzhen, Peking - Zum Gesangsheft
!!!OTL: Wu yang reqing de ge
!!!ARE: Heilongjiang
!! Ethnic Group: Dawoer
!! MM,, Seite 24, 2
!!!SCT: C1131
!!!YEM: Copyright 1995, estate of Helmut Schaffrath.
**kern
*ICvox
*Ivox
*M2/4
*k[b-]
*F:
{4g
8a
16cc
16dd
=1
8g
16g
16a
4g
=2
8a
16cc
16dd
8g
8a
=3
2cc}
=4
{8a
8a
8cc
16a
16cc
=5
8g
8g
8f
8f
=6
8g
16g
16a
8cc
8a
=7
2g}
=8
{8.dd
16ff
8cc
8a
=9
8.g
16a
8f
8f
=10
8.g
16a
8cc
8a
=11
2g}
=12
{8a
16cc
16dd
8cc
8a
=13
8g
16g
16a
8f
8f
=14
8g
8g
8a
16cc
16dd
=15
2g}
==
!!!AGN: Wuge. Zhufu
!! Die Stuecke sind meist uebersteuert, also verzerrt.
!!    Wenig Verzierungen.
!!!ONB: ESAC (Essen Associative Code) Database: CHINA
!!!AMT: simple duple
!!!AIN: vox
!!!EED: Helmut Schaffrath
!!!EEV: 1.0
*-
